Numix/32/mimetypes/virtualbox-ova.svg

<?xml version="1.0" encoding="UTF-8" standalone="no"?>
<svg
   xmlns:dc="http://purl.org/dc/elements/1.1/"
   xmlns:cc="http://creativecommons.org/ns#"
   xmlns:rdf="http://www.w3.org/1999/02/22-rdf-syntax-ns#"
   xmlns:svg="http://www.w3.org/2000/svg"
   xmlns="http://www.w3.org/2000/svg"
   xmlns:sodipodi="http://sodipodi.sourceforge.net/DTD/sodipodi-0.dtd"
   xmlns:inkscape="http://www.inkscape.org/namespaces/inkscape"
   width="32"
   height="32"
   viewBox="0 0 32 32"
   id="svg2"
   version="1.1"
   inkscape:version="0.91 r13725"
   sodipodi:docname="virtualbox-ova.svg">
  <metadata
     id="metadata26">
    <rdf:RDF>
      <cc:Work
         rdf:about="">
        <dc:format>image/svg+xml</dc:format>
        <dc:type
           rdf:resource="http://purl.org/dc/dcmitype/StillImage" />
        <dc:title />
      </cc:Work>
    </rdf:RDF>
  </metadata>
  <defs
     id="defs24" />
  <sodipodi:namedview
     pagecolor="#ffffff"
     bordercolor="#666666"
     borderopacity="1"
     objecttolerance="10"
     gridtolerance="10"
     guidetolerance="10"
     inkscape:pageopacity="0"
     inkscape:pageshadow="2"
     inkscape:window-width="1920"
     inkscape:window-height="1013"
     id="namedview22"
     showgrid="true"
     inkscape:zoom="90.509668"
     inkscape:cx="20.301976"
     inkscape:cy="4.2821215"
     inkscape:window-x="0"
     inkscape:window-y="27"
     inkscape:window-maximized="1"
     inkscape:current-layer="svg2">
    <inkscape:grid
       type="xygrid"
       id="grid3100" />
  </sodipodi:namedview>
  <path
     style="fill:#a60ed7;fill-opacity:1"
     d="M 5.335888,2.97e-4 C 4.648414,3.12e-4 4,0.676788 4,1.394031 L 4,30.606268 C 4,31.282757 4.687474,32 5.335888,32 l 21.327331,0 c 0.648414,0 1.335888,-0.717243 1.335888,-1.393732 L 28,8.9999995 19,0 z"
     id="path4-1"
     inkscape:connector-curvature="0"
     sodipodi:nodetypes="ssssssccs" />
  <path
     style="fill:#000000;fill-opacity:0.19599998"
     d="m 20.999999,8.9999995 7,7.0000005 0,-7.0000005 z"
     id="path6-4"
     inkscape:connector-curvature="0"
     sodipodi:nodetypes="cccc" />
  <path
     style="fill:#ffffff;fill-opacity:0.39200003"
     d="m 19.000305,2.97e-4 8.991594,8.9997025 -7.613262,0 c -0.672951,0 -1.378332,-0.7134896 -1.378332,-1.3864402 z"
     id="path8-6"
     inkscape:connector-curvature="0"
     sodipodi:nodetypes="ccssc" />
  <path
     style="fill:#000000;fill-opacity:0.19599998"
     d="m 4,24 0,6.667969 C 4,31.316407 4.6875,32 5.3320311,32 L 26.667969,32 C 27.3125,32 28,31.316407 28,30.667969 L 28,24 z"
     id="path3011"
     inkscape:connector-curvature="0" />
  <path
     style="fill:#ffffff;fill-opacity:1;fill-rule:nonzero;stroke:none"
     d="m 15.5,9.158 -2,8.579364 L 12.27595,14 10,14 l 0,1 1.644,0 1.956818,5.993934 0.228656,0.0061 1.979976,-8.588287 1.578291,5.193171 c 0.421804,-1.60731 0.84982,-3.215011 1.274023,-4.822322 0.93781,2.165269 -0.01791,0.04248 0.938499,2.217404 L 22,15 22,14 20.260891,14 18.660568,9 c -0.424205,1.595812 -0.851036,3.190921 -1.275239,4.784313 z"
     id="path55"
     inkscape:connector-curvature="0"
     sodipodi:nodetypes="cccccccccccccccccc" />
  <path
     inkscape:connector-curvature="0"
     id="path4141"
     style="font-style:normal;font-variant:normal;font-weight:bold;font-stretch:normal;font-size:9.0232296px;line-height:125%;font-family:'Ubuntu Mono';-inkscape-font-specification:'Ubuntu Mono, Bold';text-align:start;letter-spacing:0px;word-spacing:0px;writing-mode:lr-tb;text-anchor:start;fill:#ffffff;fill-opacity:1;stroke:none;stroke-width:1px;stroke-linecap:butt;stroke-linejoin:miter;stroke-opacity:1"
     d="m 10.121076,28 q 0,0.417956 0.02691,0.789474 0.03587,0.362229 0.125561,0.631578 0.09866,0.26935 0.269059,0.427246 0.170403,0.157894 0.457399,0.157894 0.278026,0 0.44843,-0.157894 0.179372,-0.157896 0.269058,-0.427246 0.09866,-0.278638 0.12556,-0.640867 0.03587,-0.362229 0.03587,-0.780185 0,-0.417956 -0.03587,-0.780186 -0.02691,-0.371516 -0.12556,-0.640867 -0.08968,-0.26935 -0.26009,-0.427245 -0.170404,-0.157895 -0.457398,-0.157895 -0.286996,0 -0.457399,0.157895 -0.170404,0.157895 -0.269059,0.436533 -0.08968,0.26935 -0.125561,0.631579 Q 10.121076,27.582044 10.121076,28 Z M 9,28 Q 9,26.513931 9.5291481,25.76161 10.058297,25 11.000001,25 11.977579,25 12.48879,25.76161 13,26.513931 13,28 13,29.486068 12.479822,30.247678 11.959641,31 11.008969,31 10.031391,31 9.5112114,30.247678 9,29.486068 9,28 Z" />
  <path
     inkscape:connector-curvature="0"
     id="path4143"
     style="font-style:normal;font-variant:normal;font-weight:bold;font-stretch:normal;font-size:9.0232296px;line-height:125%;font-family:'Ubuntu Mono';-inkscape-font-specification:'Ubuntu Mono, Bold';text-align:start;letter-spacing:0px;word-spacing:0px;writing-mode:lr-tb;text-anchor:start;fill:#ffffff;fill-opacity:1;stroke:none;stroke-width:1px;stroke-linecap:butt;stroke-linejoin:miter;stroke-opacity:1"
     d="M 15.821054,31 Q 15.56842,30.331179 15.28421,29.487883 15,28.644588 14.747369,27.810986 14.494736,26.96769 14.294738,26.221325 14.094736,25.474959 14,25 l 1.368421,0 q 0.06316,0.465266 0.189473,1.085622 0.126316,0.610662 0.273685,1.26979 0.157895,0.649434 0.326316,1.289176 0.178946,0.630049 0.347367,1.134087 0.168421,-0.494345 0.336843,-1.124394 0.168421,-0.63974 0.31579,-1.289176 0.147367,-0.659127 0.273684,-1.279483 Q 17.557895,25.465266 17.642105,25 L 19,25 q -0.126316,0.581583 -0.31579,1.298869 -0.178948,0.717286 -0.421052,1.512117 -0.231579,0.785136 -0.51579,1.609047 Q 17.463157,30.234249 17.157895,31 l -1.336841,0 z" />
  <path
     inkscape:connector-curvature="0"
     id="path4145"
     style="font-style:normal;font-variant:normal;font-weight:bold;font-stretch:normal;font-size:9.0232296px;line-height:125%;font-family:'Ubuntu Mono';-inkscape-font-specification:'Ubuntu Mono, Bold';text-align:start;letter-spacing:0px;word-spacing:0px;writing-mode:lr-tb;text-anchor:start;fill:#ffffff;fill-opacity:1;stroke:none;stroke-width:1px;stroke-linecap:butt;stroke-linejoin:miter;stroke-opacity:1"
     d="M 22.630705,31 22.363021,30 20.563015,30 20.3278,31 19,31 c 0.304287,-1.182553 0.612033,-2.258482 0.923236,-3.227787 C 20.234439,26.796446 20.535269,25.872375 20.825726,25 l 1.390042,0 c 0.304287,0.878836 0.605117,1.8126 0.902488,2.801292 C 23.422545,28.783522 23.716459,29.849758 24,31 Z m -1.141079,-4.836833 c -0.06916,0.226171 -0.134856,0.442649 -0.197095,0.649434 l -0.165976,0.600969 c -0.04841,0.193861 -0.09682,0.390953 -0.145228,0.591276 C 20.939834,28.205169 20.776804,28.786752 20.735306,29 l 1.465108,0 c -0.04149,-0.213248 -0.171377,-0.794831 -0.212875,-0.995154 -0.04149,-0.200323 -0.0899,-0.397415 -0.145228,-0.591276 -0.04841,-0.200323 -0.103732,-0.400646 -0.165975,-0.600969 -0.05533,-0.206785 -0.117567,-0.423263 -0.186722,-0.649434 z"
     sodipodi:nodetypes="cccccccccccccccccccccc" />
</svg>

<svg xmlns="http://www.w3.org/2000/svg" viewBox="0 0 32 32">
 <path d="m 5.336 0 c -0.687 0 -1.336 0.676 -1.336 1.394 l 0 29.21 c 0 0.676 0.687 1.394 1.336 1.394 l 21.327 0 c 0.648 0 1.336 -0.717 1.336 -1.394 l 0.001 -21.606 -9 -9 z" style="fill:#a60ed7;fill-opacity:1"/>
 <path d="m 21 9 7 7 0 -7 z" style="fill:#000;fill-opacity:0.196"/>
 <path d="m 19 0 8.992 9 -7.613 0 c -0.673 0 -1.378 -0.713 -1.378 -1.386 z" style="fill:#fff;fill-opacity:0.392"/>
 <path d="m 4 24 0 6.668 c 0 0.648 0.688 1.332 1.332 1.332 l 21.336 0 c 0.645 0 1.332 -0.684 1.332 -1.332 l 0 -6.668 z" style="fill:#000;fill-opacity:0.196"/>
 <path d="m 15.5 9.158 -2 8.579 l -1.224 -3.737 -2.276 0 l 0 1 1.644 0 1.957 5.994 0.229 0.006 1.98 -8.588 1.578 5.193 c 0.422 -1.607 0.85 -3.215 1.274 -4.822 0.938 2.165 -0.018 0.042 0.938 2.217 l 2.4 0 0 -1 -1.739 0 -1.6 -5 c -0.424 1.596 -0.851 3.191 -1.275 4.784 z" style="fill:#fff;fill-opacity:1;stroke:none;fill-rule:nonzero"/>
 <path d="m 10.121 28 q 0 0.418 0.027 0.789 0.036 0.362 0.126 0.632 0.099 0.269 0.269 0.427 0.17 0.158 0.457 0.158 0.278 0 0.448 -0.158 0.179 -0.158 0.269 -0.427 0.099 -0.279 0.126 -0.641 0.036 -0.362 0.036 -0.78 0 -0.418 -0.036 -0.78 -0.027 -0.372 -0.126 -0.641 -0.09 -0.269 -0.26 -0.427 -0.17 -0.158 -0.457 -0.158 -0.287 0 -0.457 0.158 -0.17 0.158 -0.269 0.437 -0.09 0.269 -0.126 0.632 q -0.027 0.362 -0.027 0.78 m -1.121 0 q 0 -1.486 0.529 -2.238 0.529 -0.762 1.471 -0.762 0.978 0 1.489 0.762 0.511 0.752 0.511 2.238 0 1.486 -0.52 2.248 -0.52 0.752 -1.471 0.752 -0.978 0 -1.498 -0.752 -0.511 -0.762 -0.511 -2.248" style="fill:#fff;fill-opacity:1;stroke:none"/>
 <path d="m 15.821 31 q -0.253 -0.669 -0.537 -1.512 -0.284 -0.843 -0.537 -1.677 -0.253 -0.843 -0.453 -1.59 -0.2 -0.746 -0.295 -1.221 l 1.368 0 q 0.063 0.465 0.189 1.086 0.126 0.611 0.274 1.27 0.158 0.649 0.326 1.289 0.179 0.63 0.347 1.134 0.168 -0.494 0.337 -1.124 0.168 -0.64 0.316 -1.289 0.147 -0.659 0.274 -1.279 q 0.126 -0.62 0.211 -1.086 l 1.358 0 q -0.126 0.582 -0.316 1.299 -0.179 0.717 -0.421 1.512 -0.232 0.785 -0.516 1.609 q -0.284 0.814 -0.589 1.58 l -1.337 0 z" style="fill:#fff;fill-opacity:1;stroke:none"/>
 <path d="m 22.631 31 -0.268 -1 -1.8 0 -0.235 1 -1.328 0 c 0.304 -1.183 0.612 -2.258 0.923 -3.228 c 0.311 -0.976 0.612 -1.9 0.902 -2.772 l 1.39 0 c 0.304 0.879 0.605 1.813 0.902 2.801 c 0.304 0.982 0.598 2.048 0.882 3.199 m -2.51 -4.837 c -0.069 0.226 -0.135 0.443 -0.197 0.649 l -0.166 0.601 c -0.048 0.194 -0.097 0.391 -0.145 0.591 c -0.041 0.2 -0.205 0.782 -0.246 0.995 l 1.465 0 c -0.041 -0.213 -0.171 -0.795 -0.213 -0.995 -0.041 -0.2 -0.09 -0.397 -0.145 -0.591 -0.048 -0.2 -0.104 -0.401 -0.166 -0.601 -0.055 -0.207 -0.118 -0.423 -0.187 -0.649 z" style="fill:#fff;fill-opacity:1;stroke:none"/>
</svg>
